; G-Code generated by Simplify3D(R) Version 4.0.1
; Dec 31, 2017 at 5:31:09 PM
; Settings Summary
;   processName,Process1
;   applyToModels,beacon-box-case
;   profileName,BCN3D+ (modified)
;   profileVersion,2017-12-31 13:44:16
;   baseProfile,Default
;   printMaterial,FilaFlex
;   printQuality,Medium
;   printExtruders,
;   extruderName,Extruder 1
;   extruderToolheadNumber,0
;   extruderDiameter,0.4
;   extruderAutoWidth,0
;   extruderWidth,0.4
;   extrusionMultiplier,1
;   extruderUseRetract,1
;   extruderRetractionDistance,1
;   extruderExtraRestartDistance,0
;   extruderRetractionZLift,0
;   extruderRetractionSpeed,1800
;   extruderUseCoasting,0
;   extruderCoastingDistance,0.2
;   extruderUseWipe,0
;   extruderWipeDistance,5
;   primaryExtruder,0
;   layerHeight,0.2
;   topSolidLayers,3
;   bottomSolidLayers,3
;   perimeterOutlines,2
;   printPerimetersInsideOut,1
;   startPointOption,2
;   startPointOriginX,0
;   startPointOriginY,0
;   sequentialIslands,0
;   spiralVaseMode,0
;   firstLayerHeightPercentage,90
;   firstLayerWidthPercentage,100
;   firstLayerUnderspeed,0.5
;   useRaft,0
;   raftExtruder,0
;   raftTopLayers,3
;   raftBaseLayers,2
;   raftOffset,3
;   raftSeparationDistance,0.14
;   raftTopInfill,100
;   aboveRaftSpeedMultiplier,0.3
;   useSkirt,1
;   skirtExtruder,0
;   skirtLayers,1
;   skirtOutlines,8
;   skirtOffset,3
;   usePrimePillar,0
;   primePillarExtruder,999
;   primePillarWidth,12
;   primePillarLocation,7
;   primePillarSpeedMultiplier,1
;   useOozeShield,0
;   oozeShieldExtruder,999
;   oozeShieldOffset,2
;   oozeShieldOutlines,1
;   oozeShieldSidewallShape,1
;   oozeShieldSidewallAngle,30
;   oozeShieldSpeedMultiplier,1
;   infillExtruder,0
;   internalInfillPattern,Rectilinear
;   externalInfillPattern,Rectilinear
;   infillPercentage,100
;   outlineOverlapPercentage,15
;   infillExtrusionWidthPercentage,100
;   minInfillLength,5
;   infillLayerInterval,1
;   internalInfillAngles,45,-45
;   overlapInternalInfillAngles,0
;   externalInfillAngles,45,-45
;   generateSupport,0
;   supportExtruder,0
;   supportInfillPercentage,30
;   supportExtraInflation,0
;   supportBaseLayers,0
;   denseSupportExtruder,0
;   denseSupportLayers,0
;   denseSupportInfillPercentage,70
;   supportLayerInterval,1
;   supportHorizontalPartOffset,0.3
;   supportUpperSeparationLayers,1
;   supportLowerSeparationLayers,1
;   supportType,0
;   supportGridSpacing,4
;   maxOverhangAngle,45
;   supportAngles,0
;   temperatureName,Extruder 1,Heated Bed
;   temperatureNumber,0,0
;   temperatureSetpointCount,1,1
;   temperatureSetpointLayers,1,1
;   temperatureSetpointTemperatures,230,80
;   temperatureStabilizeAtStartup,1,1
;   temperatureHeatedBed,0,1
;   temperatureRelayBetweenLayers,0,0
;   temperatureRelayBetweenLoops,0,0
;   fanLayers,1,2
;   fanSpeeds,0,100
;   blipFanToFullPower,0
;   adjustSpeedForCooling,1
;   minSpeedLayerTime,15
;   minCoolingSpeedSlowdown,20
;   increaseFanForCooling,0
;   minFanLayerTime,45
;   maxCoolingFanSpeed,100
;   increaseFanForBridging,0
;   bridgingFanSpeed,100
;   use5D,1
;   relativeEdistances,0
;   allowEaxisZeroing,1
;   independentExtruderAxes,0
;   includeM10123,0
;   stickySupport,1
;   applyToolheadOffsets,0
;   gcodeXoffset,0
;   gcodeYoffset,0
;   gcodeZoffset,0
;   overrideMachineDefinition,1
;   machineTypeOverride,0
;   strokeXoverride,250
;   strokeYoverride,200
;   strokeZoverride,200
;   originOffsetXoverride,0
;   originOffsetYoverride,0
;   originOffsetZoverride,0
;   homeXdirOverride,-1
;   homeYdirOverride,-1
;   homeZdirOverride,-1
;   flipXoverride,1
;   flipYoverride,-1
;   flipZoverride,1
;   toolheadOffsets,0,0|0,0|0,0|0,0|0,0|0,0
;   overrideFirmwareConfiguration,1
;   firmwareTypeOverride,RepRap (Marlin/Repetier/Sprinter)
;   GPXconfigOverride,r2
;   baudRateOverride,115200
;   overridePrinterModels,0
;   printerModelsOverride
;   startingGcode,;Sliced at: {day} {date} {time} ,;Basic settings: Layer height: {layer_height} Walls: {wall_thickness} Fill: {fill_density},;Print time: {print_time},;Filament used: {filament_amount}m {filament_weight}g,;Filament cost: {filament_cost},M104 S0 T1;cooldown left Hotend,,M109 S[extruder0_temperature] T0;stabilize right Hotend Temperature,,M190 S[bed0_temperature];stabilize bed temperature,G21;metric values,G90;absolute positioning,M82;set extruder to absolute mode,M107;start with the fan off,G28 X0 Y0;move X/Y to min endstops,G28 Z0;move Z to min endstops,T0;change to active toolhead,G92 E0;zero the extruded length,G1 Z15 F1200;Safety Z axis movement,G1 F18.81 E10.0 ;extrude 10.0mm of feed stock,G92 E0;zero the extruded length again,G1 F2400 E-4;Retract before printing,G1 X100 F3600
;   layerChangeGcode,
;   retractionGcode,
;   toolChangeGcode,
;   endingGcode,M104 S0 ; turn off extruder,M120 S0; turn off Hot Bed,M140 S0;heated bed heater off,M107,G91;relative positioning,G1 Z+0.5 E-5 Y+10 F3600 ;move Z up a bit and retract filament even more,G28 X0 Y0;move X/Y to min endstops, so the head is out of the way,M84;steppers off,G90;absolute positioning,
;   exportFileFormat,gcode
;   celebration,0
;   celebrationSong,Random Song
;   postProcessing,curl -k -H "X-Api-Key: B04DF272E0004962BE7083D0EA60AD7A" -F "select=true" -F "print=false" -F "file=@[output_filepath]" "http://octopi.guerville.com/api/files/local" {STRIP "; postProcessing"}
;   defaultSpeed,3600
;   outlineUnderspeed,0.5
;   solidInfillUnderspeed,0.8
;   supportUnderspeed,0.8
;   rapidXYspeed,4800
;   rapidZspeed,1002
;   minBridgingArea,50
;   bridgingExtraInflation,0
;   bridgingExtrusionMultiplier,1
;   bridgingSpeedMultiplier,1
;   useFixedBridgingAngle,0
;   fixedBridgingAngle,0
;   applyBridgingToPerimeters,0
;   filamentDiameters,2.75|2.75|2.75|2.75|2.75|2.75
;   filamentPricesPerKg,46|46|46|46|46|46
;   filamentDensities,1.25|1.25|1.25|1.25|1.25|1.25
;   useMinPrintHeight,0
;   minPrintHeight,0
;   useMaxPrintHeight,0
;   maxPrintHeight,0
;   useDiaphragm,0
;   diaphragmLayerInterval,20
;   robustSlicing,1
;   mergeAllIntoSolid,0
;   onlyRetractWhenCrossingOutline,1
;   retractBetweenLayers,1
;   useRetractionMinTravel,0
;   retractionMinTravel,3
;   retractWhileWiping,0
;   onlyWipeOutlines,1
;   avoidCrossingOutline,0
;   maxMovementDetourFactor,3
;   toolChangeRetractionDistance,12
;   toolChangeExtraRestartDistance,-0.5
;   toolChangeRetractionSpeed,600
;   externalThinWallType,0
;   internalThinWallType,2
;   thinWallAllowedOverlapPercentage,10
;   singleExtrusionMinLength,1
;   singleExtrusionMinPrintingWidthPercentage,50
;   singleExtrusionMaxPrintingWidthPercentage,200
;   singleExtrusionEndpointExtension,0.2
;   horizontalSizeCompensation,0
G90
M82
M106 S0
;Sliced at: {day} {date} {time} 
;Basic settings: Layer height: {layer_height} Walls: {wall_thickness} Fill: {fill_density}
;Print time: {print_time}
;Filament used: {filament_amount}m {filament_weight}g
;Filament cost: {filament_cost}
M104 S0 T1;cooldown left Hotend,
M109 S230 T0;stabilize right Hotend Temperature,
M190 S80;stabilize bed temperature
G21;metric values
G90;absolute positioning
M82;set extruder to absolute mode
M107;start with the fan off
G28 X0 Y0;move X/Y to min endstops
G28 Z0;move Z to min endstops
T0;change to active toolhead
G92 E0;zero the extruded length
G1 Z15 F1200;Safety Z axis movement
G1 F18.81 E10.0 ;extrude 10.0mm of feed stock
G92 E0;zero the extruded length again
G1 F2400 E-4;Retract before printing
G1 X100 F3600
G92 E0
G1 E-1.0000 F1800
G1 Z0.180 F1002
; process Process1
; layer 1, Z = 0.180
T0
; tool H0.200 W0.400
; skirt
G1 X113.164 Y82.529 F4800
G1 E0.0000 F540
G92 E0
G1 X113.262 Y82.407 E0.0021 F1800
G1 X113.745 Y81.870 E0.0118
G1 X113.857 Y81.759 E0.0140
G1 X114.207 Y81.443 E0.0203
G1 X114.330 Y81.344 E0.0224
G1 X114.913 Y80.920 E0.0322
G1 X115.045 Y80.835 E0.0343
G1 X115.452 Y80.600 E0.0406
G1 X115.591 Y80.529 E0.0427
G1 X116.251 Y80.235 E0.0524
G1 X116.397 Y80.178 E0.0545
G1 X116.846 Y80.032 E0.0609
G1 X116.997 Y79.992 E0.0630
G1 X117.705 Y79.841 E0.0728
G1 X117.861 Y79.816 E0.0749
G1 X118.331 Y79.766 E0.0812
G1 X118.488 Y79.758 E0.0834
G1 X131.511 Y79.758 E0.2588
G1 X131.668 Y79.766 E0.2609
G1 X132.137 Y79.816 E0.2672
G1 X132.292 Y79.840 E0.2694
G1 X132.998 Y79.990 E0.2791
G1 X133.149 Y80.031 E0.2812
G1 X133.596 Y80.176 E0.2875
G1 X133.742 Y80.232 E0.2896
G1 X134.402 Y80.525 E0.2993
G1 X134.542 Y80.596 E0.3015
G1 X134.951 Y80.832 E0.3078
G1 X135.082 Y80.918 E0.3099
G1 X135.667 Y81.342 E0.3197
G1 X135.789 Y81.441 E0.3218
G1 X136.140 Y81.756 E0.3281
G1 X136.251 Y81.867 E0.3302
G1 X136.736 Y82.405 E0.3400
G1 X136.835 Y82.527 E0.3421
G1 X137.113 Y82.909 E0.3485
G1 X137.199 Y83.042 E0.3506
G1 X137.560 Y83.668 E0.3603
G1 X137.632 Y83.808 E0.3625
G1 X137.823 Y84.239 E0.3688
G1 X137.880 Y84.385 E0.3709
G1 X138.103 Y85.072 E0.3807
G1 X138.144 Y85.224 E0.3828
G1 X138.242 Y85.685 E0.3891
G1 X138.266 Y85.840 E0.3912
G1 X138.329 Y86.441 E0.3994
G1 X138.336 Y86.520 E0.4004
G1 X138.348 Y86.755 E0.4036
G1 X138.350 Y86.834 E0.4047
G1 X138.350 Y113.170 E0.7594
G1 X138.348 Y113.248 E0.7604
G1 X138.336 Y113.484 E0.7636
G1 X138.329 Y113.562 E0.7647
G1 X138.266 Y114.163 E0.7728
G1 X138.242 Y114.318 E0.7749
G1 X138.144 Y114.779 E0.7813
G1 X138.103 Y114.931 E0.7834
G1 X137.880 Y115.618 E0.7931
G1 X137.823 Y115.765 E0.7953
G1 X137.631 Y116.196 E0.8016
G1 X137.560 Y116.336 E0.8037
G1 X137.199 Y116.961 E0.8135
G1 X137.113 Y117.093 E0.8156
G1 X136.837 Y117.474 E0.8219
G1 X136.738 Y117.596 E0.8240
G1 X136.254 Y118.133 E0.8338
G1 X136.143 Y118.244 E0.8359
G1 X135.792 Y118.560 E0.8422
G1 X135.670 Y118.659 E0.8444
G1 X135.087 Y119.083 E0.8541
G1 X134.955 Y119.168 E0.8562
G1 X134.549 Y119.403 E0.8625
G1 X134.410 Y119.474 E0.8646
G1 X133.751 Y119.768 E0.8743
G1 X133.604 Y119.825 E0.8764
G1 X133.154 Y119.971 E0.8828
G1 X133.002 Y120.012 E0.8849
G1 X132.295 Y120.162 E0.8947
G1 X132.139 Y120.187 E0.8968
G1 X131.670 Y120.237 E0.9032
G1 X131.512 Y120.245 E0.9053
G1 X118.489 Y120.245 E1.0807
G1 X118.332 Y120.237 E1.0828
G1 X117.864 Y120.188 E1.0891
G1 X117.709 Y120.163 E1.0913
G1 X117.003 Y120.013 E1.1010
G1 X116.852 Y119.973 E1.1031
G1 X116.403 Y119.827 E1.1094
G1 X116.257 Y119.771 E1.1115
G1 X115.597 Y119.478 E1.1213
G1 X115.458 Y119.407 E1.1234
G1 X115.050 Y119.172 E1.1297
G1 X114.918 Y119.086 E1.1318
G1 X114.334 Y118.662 E1.1416
G1 X114.211 Y118.563 E1.1437
G1 X113.859 Y118.247 E1.1501
G1 X113.748 Y118.135 E1.1522
G1 X113.264 Y117.598 E1.1619
G1 X113.165 Y117.476 E1.1640
G1 X112.888 Y117.095 E1.1704
G1 X112.802 Y116.963 E1.1725
G1 X112.440 Y116.337 E1.1822
G1 X112.369 Y116.197 E1.1844
G1 X112.177 Y115.765 E1.1907
G1 X112.120 Y115.618 E1.1928
G1 X111.897 Y114.930 E1.2026
G1 X111.856 Y114.779 E1.2047
G1 X111.758 Y114.317 E1.2110
G1 X111.734 Y114.162 E1.2132
G1 X111.671 Y113.561 E1.2213
G1 X111.664 Y113.483 E1.2224
G1 X111.652 Y113.248 E1.2255
G1 X111.650 Y113.169 E1.2266
G1 X111.650 Y86.834 E1.5813
G1 X111.652 Y86.755 E1.5824
G1 X111.664 Y86.520 E1.5855
G1 X111.671 Y86.442 E1.5866
G1 X111.734 Y85.841 E1.5947
G1 X111.758 Y85.686 E1.5968
G1 X111.856 Y85.225 E1.6032
G1 X111.897 Y85.073 E1.6053
G1 X112.120 Y84.385 E1.6150
G1 X112.177 Y84.238 E1.6172
G1 X112.369 Y83.807 E1.6235
G1 X112.440 Y83.667 E1.6256
G1 X112.801 Y83.041 E1.6354
G1 X112.887 Y82.910 E1.6375
G1 X113.164 Y82.529 E1.6438
G1 X113.481 Y82.773 F4800
G92 E0
G1 X113.566 Y82.667 E0.0018 F1800
G1 X114.036 Y82.146 E0.0113
G1 X114.132 Y82.049 E0.0131
G1 X114.467 Y81.748 E0.0192
G1 X114.573 Y81.662 E0.0210
G1 X115.140 Y81.250 E0.0305
G1 X115.254 Y81.176 E0.0323
G1 X115.643 Y80.951 E0.0383
G1 X115.764 Y80.890 E0.0402
G1 X116.404 Y80.604 E0.0496
G1 X116.531 Y80.555 E0.0514
G1 X116.959 Y80.416 E0.0575
G1 X117.091 Y80.381 E0.0593
G1 X117.778 Y80.234 E0.0688
G1 X117.913 Y80.213 E0.0706
G1 X118.362 Y80.165 E0.0767
G1 X118.499 Y80.158 E0.0786
G1 X131.501 Y80.158 E0.2537
G1 X131.637 Y80.165 E0.2555
G1 X132.085 Y80.212 E0.2616
G1 X132.219 Y80.234 E0.2634
G1 X132.904 Y80.379 E0.2729
G1 X133.035 Y80.414 E0.2747
G1 X133.463 Y80.553 E0.2807
G1 X133.589 Y80.602 E0.2826
G1 X134.230 Y80.886 E0.2920
G1 X134.351 Y80.948 E0.2938
G1 X134.742 Y81.173 E0.2999
G1 X134.856 Y81.247 E0.3018
G1 X135.424 Y81.659 E0.3112
G1 X135.530 Y81.745 E0.3130
G1 X135.865 Y82.046 E0.3191
G1 X135.961 Y82.143 E0.3209
G1 X136.431 Y82.665 E0.3304
G1 X136.517 Y82.771 E0.3322
G1 X136.783 Y83.136 E0.3383
G1 X136.858 Y83.251 E0.3402
G1 X137.209 Y83.859 E0.3496
G1 X137.270 Y83.980 E0.3515
G1 X137.454 Y84.392 E0.3575
G1 X137.502 Y84.519 E0.3594
G1 X137.719 Y85.186 E0.3688
G1 X137.755 Y85.317 E0.3706
G1 X137.848 Y85.758 E0.3767
G1 X137.869 Y85.893 E0.3785
G1 X137.931 Y86.478 E0.3865
G1 X137.936 Y86.546 E0.3874
G1 X137.948 Y86.771 E0.3904
G1 X137.950 Y86.839 E0.3913
G1 X137.950 Y113.164 E0.7459
G1 X137.948 Y113.232 E0.7468
G1 X137.936 Y113.457 E0.7499
G1 X137.931 Y113.525 E0.7508
G1 X137.869 Y114.111 E0.7587
G1 X137.848 Y114.245 E0.7605
G1 X137.755 Y114.686 E0.7666
G1 X137.719 Y114.817 E0.7685
G1 X137.502 Y115.485 E0.7779
G1 X137.454 Y115.612 E0.7797
G1 X137.270 Y116.024 E0.7858
G1 X137.208 Y116.145 E0.7876
G1 X136.858 Y116.752 E0.7971
G1 X136.784 Y116.866 E0.7989
G1 X136.519 Y117.230 E0.8050
G1 X136.434 Y117.336 E0.8068
G1 X135.964 Y117.858 E0.8163
G1 X135.868 Y117.954 E0.8181
G1 X135.532 Y118.256 E0.8242
G1 X135.426 Y118.342 E0.8260
G1 X134.860 Y118.753 E0.8354
G1 X134.746 Y118.827 E0.8373
G1 X134.358 Y119.051 E0.8433
G1 X134.237 Y119.113 E0.8451
G1 X133.597 Y119.399 E0.8546
G1 X133.470 Y119.448 E0.8564
G1 X133.041 Y119.587 E0.8625
G1 X132.909 Y119.623 E0.8643
G1 X132.222 Y119.769 E0.8738
G1 X132.087 Y119.790 E0.8756
G1 X131.638 Y119.838 E0.8817
G1 X131.502 Y119.845 E0.8835
G1 X118.500 Y119.845 E1.0587
G1 X118.364 Y119.838 E1.0605
G1 X117.916 Y119.791 E1.0666
G1 X117.782 Y119.770 E1.0684
G1 X117.097 Y119.624 E1.0778
G1 X116.965 Y119.589 E1.0797
G1 X116.537 Y119.450 E1.0857
G1 X116.410 Y119.401 E1.0876
G1 X115.770 Y119.117 E1.0970
G1 X115.648 Y119.055 E1.0988
G1 X115.259 Y118.830 E1.1049
G1 X115.145 Y118.756 E1.1067
G1 X114.577 Y118.344 E1.1162
G1 X114.471 Y118.259 E1.1180
G1 X114.135 Y117.956 E1.1241
G1 X114.038 Y117.860 E1.1259
G1 X113.568 Y117.338 E1.1354
G1 X113.482 Y117.232 E1.1372
G1 X113.217 Y116.868 E1.1433
G1 X113.143 Y116.754 E1.1451
G1 X112.792 Y116.146 E1.1546
G1 X112.730 Y116.024 E1.1564
G1 X112.546 Y115.612 E1.1625
G1 X112.497 Y115.484 E1.1643
G1 X112.281 Y114.817 E1.1738
G1 X112.245 Y114.685 E1.1756
G1 X112.152 Y114.245 E1.1817
G1 X112.130 Y114.110 E1.1835
G1 X112.069 Y113.525 E1.1915
G1 X112.064 Y113.457 E1.1924
G1 X112.052 Y113.232 E1.1954
G1 X112.050 Y113.164 E1.1963
G1 X112.050 Y86.839 E1.5509
G1 X112.052 Y86.771 E1.5518
G1 X112.064 Y86.546 E1.5548
G1 X112.069 Y86.479 E1.5558
G1 X112.130 Y85.893 E1.5637
G1 X112.152 Y85.759 E1.5655
G1 X112.245 Y85.318 E1.5716
G1 X112.281 Y85.186 E1.5734
G1 X112.497 Y84.519 E1.5829
G1 X112.546 Y84.392 E1.5847
G1 X112.730 Y83.979 E1.5908
G1 X112.792 Y83.858 E1.5926
G1 X113.143 Y83.250 E1.6021
G1 X113.217 Y83.136 E1.6039
G1 X113.481 Y82.773 E1.6100
G1 X113.798 Y83.016 F4800
G92 E0
G1 X113.871 Y82.927 E0.0015 F1800
G1 X114.326 Y82.421 E0.0107
G1 X114.407 Y82.340 E0.0123
G1 X114.727 Y82.052 E0.0181
G1 X114.817 Y81.979 E0.0196
G1 X115.366 Y81.580 E0.0288
G1 X115.463 Y81.517 E0.0303
G1 X115.834 Y81.303 E0.0361
G1 X115.936 Y81.251 E0.0376
G1 X116.557 Y80.974 E0.0468
G1 X116.665 Y80.933 E0.0483
G1 X117.073 Y80.800 E0.0541
G1 X117.185 Y80.770 E0.0557
G1 X117.851 Y80.628 E0.0649
G1 X117.965 Y80.609 E0.0664
G1 X118.394 Y80.564 E0.0722
G1 X118.509 Y80.558 E0.0738
G1 X131.490 Y80.558 E0.2486
G1 X131.605 Y80.564 E0.2502
G1 X132.033 Y80.609 E0.2560
G1 X132.146 Y80.627 E0.2575
G1 X132.811 Y80.768 E0.2667
G1 X132.922 Y80.798 E0.2682
G1 X133.329 Y80.930 E0.2740
G1 X133.436 Y80.972 E0.2755
G1 X134.058 Y81.248 E0.2847
G1 X134.161 Y81.300 E0.2862
G1 X134.533 Y81.515 E0.2920
G1 X134.630 Y81.577 E0.2936
G1 X135.180 Y81.977 E0.3027
G1 X135.270 Y82.050 E0.3043
G1 X135.589 Y82.337 E0.3101
G1 X135.671 Y82.418 E0.3116
G1 X136.127 Y82.925 E0.3208
G1 X136.200 Y83.014 E0.3224
G1 X136.453 Y83.363 E0.3282
G1 X136.516 Y83.460 E0.3297
