; G-Code generated by Simplify3D(R) Version 4.0.1
; Jan 1, 2018 at 1:18:05 PM
; Settings Summary
;   processName,Process1
;   applyToModels,beacon-box
;   profileName,BCN3D+ (modified)
;   profileVersion,2017-12-31 13:44:16
;   baseProfile,Default
;   printMaterial,FilaFlex
;   printQuality,Medium
;   printExtruders,
;   extruderName,Extruder 1
;   extruderToolheadNumber,0
;   extruderDiameter,0.4
;   extruderAutoWidth,0
;   extruderWidth,0.4
;   extrusionMultiplier,1.1
;   extruderUseRetract,1
;   extruderRetractionDistance,1
;   extruderExtraRestartDistance,0
;   extruderRetractionZLift,0
;   extruderRetractionSpeed,1800
;   extruderUseCoasting,0
;   extruderCoastingDistance,0.2
;   extruderUseWipe,0
;   extruderWipeDistance,5
;   primaryExtruder,0
;   layerHeight,0.2
;   topSolidLayers,3
;   bottomSolidLayers,3
;   perimeterOutlines,2
;   printPerimetersInsideOut,1
;   startPointOption,2
;   startPointOriginX,0
;   startPointOriginY,0
;   sequentialIslands,1
;   spiralVaseMode,0
;   firstLayerHeightPercentage,150
;   firstLayerWidthPercentage,100
;   firstLayerUnderspeed,0.5
;   useRaft,0
;   raftExtruder,0
;   raftTopLayers,3
;   raftBaseLayers,2
;   raftOffset,3
;   raftSeparationDistance,0.14
;   raftTopInfill,100
;   aboveRaftSpeedMultiplier,0.3
;   useSkirt,1
;   skirtExtruder,0
;   skirtLayers,1
;   skirtOutlines,6
;   skirtOffset,1
;   usePrimePillar,0
;   primePillarExtruder,999
;   primePillarWidth,12
;   primePillarLocation,7
;   primePillarSpeedMultiplier,1
;   useOozeShield,0
;   oozeShieldExtruder,999
;   oozeShieldOffset,2
;   oozeShieldOutlines,1
;   oozeShieldSidewallShape,1
;   oozeShieldSidewallAngle,30
;   oozeShieldSpeedMultiplier,1
;   infillExtruder,0
;   internalInfillPattern,Rectilinear
;   externalInfillPattern,Rectilinear
;   infillPercentage,100
;   outlineOverlapPercentage,15
;   infillExtrusionWidthPercentage,100
;   minInfillLength,5
;   infillLayerInterval,1
;   internalInfillAngles,45,-45
;   overlapInternalInfillAngles,0
;   externalInfillAngles,45,-45
;   generateSupport,0
;   supportExtruder,0
;   supportInfillPercentage,30
;   supportExtraInflation,0
;   supportBaseLayers,0
;   denseSupportExtruder,0
;   denseSupportLayers,0
;   denseSupportInfillPercentage,70
;   supportLayerInterval,1
;   supportHorizontalPartOffset,0.3
;   supportUpperSeparationLayers,1
;   supportLowerSeparationLayers,1
;   supportType,0
;   supportGridSpacing,4
;   maxOverhangAngle,45
;   supportAngles,0
;   temperatureName,Extruder 1,Heated Bed
;   temperatureNumber,0,0
;   temperatureSetpointCount,1,1
;   temperatureSetpointLayers,1,1
;   temperatureSetpointTemperatures,235,40
;   temperatureStabilizeAtStartup,1,1
;   temperatureHeatedBed,0,1
;   temperatureRelayBetweenLayers,0,0
;   temperatureRelayBetweenLoops,0,0
;   fanLayers,1,2
;   fanSpeeds,0,100
;   blipFanToFullPower,0
;   adjustSpeedForCooling,1
;   minSpeedLayerTime,15
;   minCoolingSpeedSlowdown,20
;   increaseFanForCooling,0
;   minFanLayerTime,45
;   maxCoolingFanSpeed,100
;   increaseFanForBridging,0
;   bridgingFanSpeed,100
;   use5D,1
;   relativeEdistances,0
;   allowEaxisZeroing,1
;   independentExtruderAxes,0
;   includeM10123,0
;   stickySupport,1
;   applyToolheadOffsets,0
;   gcodeXoffset,0
;   gcodeYoffset,0
;   gcodeZoffset,0
;   overrideMachineDefinition,1
;   machineTypeOverride,0
;   strokeXoverride,250
;   strokeYoverride,200
;   strokeZoverride,200
;   originOffsetXoverride,0
;   originOffsetYoverride,0
;   originOffsetZoverride,0
;   homeXdirOverride,-1
;   homeYdirOverride,-1
;   homeZdirOverride,-1
;   flipXoverride,1
;   flipYoverride,-1
;   flipZoverride,1
;   toolheadOffsets,0,0|0,0|0,0|0,0|0,0|0,0
;   overrideFirmwareConfiguration,1
;   firmwareTypeOverride,RepRap (Marlin/Repetier/Sprinter)
;   GPXconfigOverride,r2
;   baudRateOverride,115200
;   overridePrinterModels,0
;   printerModelsOverride
;   startingGcode,;Sliced at: {day} {date} {time} ,;Basic settings: Layer height: {layer_height} Walls: {wall_thickness} Fill: {fill_density},;Print time: {print_time},;Filament used: {filament_amount}m {filament_weight}g,;Filament cost: {filament_cost},M104 S0 T1;cooldown left Hotend,,M109 S[extruder0_temperature] T0;stabilize right Hotend Temperature,,M190 S[bed0_temperature];stabilize bed temperature,G21;metric values,G90;absolute positioning,M82;set extruder to absolute mode,M107;start with the fan off,G28 X0 Y0;move X/Y to min endstops,G28 Z0;move Z to min endstops,T0;change to active toolhead,G92 E0;zero the extruded length,G1 Z15 F1200;Safety Z axis movement,G1 F18.81 E10.0 ;extrude 10.0mm of feed stock,G92 E0;zero the extruded length again,G1 F2400 E-4;Retract before printing,G1 X60 F3600
;   layerChangeGcode,
;   retractionGcode,
;   toolChangeGcode,
;   endingGcode,M104 S0 ; turn off extruder,M120 S0; turn off Hot Bed,M140 S0;heated bed heater off,M107 S0,M106 S0,G91;relative positioning,G1 Z+0.5 E-5 Y+10 F3600 ;move Z up a bit and retract filament even more,G28 X0 Y0;move X/Y to min endstops, so the head is out of the way,M84;steppers off,G90;absolute positioning,
;   exportFileFormat,gcode
;   celebration,0
;   celebrationSong,Random Song
;   postProcessing,curl -k -H "X-Api-Key: B04DF272E0004962BE7083D0EA60AD7A" -F "select=true" -F "print=false" -F "file=@[output_filepath]" "http://octopi.guerville.com/api/files/local" {STRIP "; postProcessing"}
;   defaultSpeed,3600
;   outlineUnderspeed,0.5
;   solidInfillUnderspeed,0.8
;   supportUnderspeed,0.8
;   rapidXYspeed,4800
;   rapidZspeed,1002
;   minBridgingArea,50
;   bridgingExtraInflation,0
;   bridgingExtrusionMultiplier,1
;   bridgingSpeedMultiplier,1
;   useFixedBridgingAngle,0
;   fixedBridgingAngle,0
;   applyBridgingToPerimeters,0
;   filamentDiameters,2.85|2.75|2.75|2.75|2.75|2.75
;   filamentPricesPerKg,46|46|46|46|46|46
;   filamentDensities,1.25|1.25|1.25|1.25|1.25|1.25
;   useMinPrintHeight,0
;   minPrintHeight,0
;   useMaxPrintHeight,0
;   maxPrintHeight,0
;   useDiaphragm,0
;   diaphragmLayerInterval,20
;   robustSlicing,1
;   mergeAllIntoSolid,0
;   onlyRetractWhenCrossingOutline,1
;   retractBetweenLayers,1
;   useRetractionMinTravel,0
;   retractionMinTravel,3
;   retractWhileWiping,0
;   onlyWipeOutlines,1
;   avoidCrossingOutline,0
;   maxMovementDetourFactor,3
;   toolChangeRetractionDistance,12
;   toolChangeExtraRestartDistance,-0.5
;   toolChangeRetractionSpeed,600
;   externalThinWallType,0
;   internalThinWallType,2
;   thinWallAllowedOverlapPercentage,10
;   singleExtrusionMinLength,1
;   singleExtrusionMinPrintingWidthPercentage,50
;   singleExtrusionMaxPrintingWidthPercentage,200
;   singleExtrusionEndpointExtension,0.2
;   horizontalSizeCompensation,0
G90
M82
M106 S0
;Sliced at: {day} {date} {time} 
;Basic settings: Layer height: {layer_height} Walls: {wall_thickness} Fill: {fill_density}
;Print time: {print_time}
;Filament used: {filament_amount}m {filament_weight}g
;Filament cost: {filament_cost}
M104 S0 T1;cooldown left Hotend,
M109 S235 T0;stabilize right Hotend Temperature,
M190 S40;stabilize bed temperature
G21;metric values
G90;absolute positioning
M82;set extruder to absolute mode
M107;start with the fan off
G28 X0 Y0;move X/Y to min endstops
G28 Z0;move Z to min endstops
T0;change to active toolhead
G92 E0;zero the extruded length
G1 Z15 F1200;Safety Z axis movement
G1 F18.81 E10.0 ;extrude 10.0mm of feed stock
G92 E0;zero the extruded length again
G1 F2400 E-4;Retract before printing
G1 X60 F3600
G92 E0
G1 E-1.0000 F1800
G1 Z0.300 F1002
; process Process1
; layer 1, Z = 0.300
T0
; tool H0.300 W0.400
; skirt
G1 X57.948 Y90.163 F4800
G1 E0.0000 F540
G92 E0
G1 X58.354 Y89.928 E0.0097 F1800
G1 X58.456 Y89.876 E0.0121
G1 X58.656 Y89.787 E0.0166
G1 X58.763 Y89.746 E0.0190
G1 X59.212 Y89.600 E0.0288
G1 X59.324 Y89.569 E0.0311
G1 X59.540 Y89.523 E0.0357
G1 X59.655 Y89.505 E0.0381
G1 X60.069 Y89.462 E0.0467
G1 X60.126 Y89.457 E0.0479
G1 X60.236 Y89.452 E0.0502
G1 X60.293 Y89.450 E0.0514
G1 X86.503 Y89.450 E0.5937
G1 X86.561 Y89.452 E0.5949
G1 X86.671 Y89.457 E0.5972
G1 X86.728 Y89.462 E0.5984
G1 X87.142 Y89.505 E0.6070
G1 X87.255 Y89.523 E0.6094
G1 X87.471 Y89.569 E0.6139
G1 X87.582 Y89.599 E0.6163
G1 X88.030 Y89.744 E0.6260
G1 X88.138 Y89.786 E0.6284
G1 X88.339 Y89.875 E0.6330
G1 X88.441 Y89.928 E0.6354
G1 X88.849 Y90.163 E0.6451
G1 X88.946 Y90.226 E0.6475
G1 X89.123 Y90.355 E0.6520
G1 X89.213 Y90.427 E0.6544
G1 X89.563 Y90.742 E0.6642
G1 X89.645 Y90.824 E0.6666
G1 X89.792 Y90.988 E0.6711
G1 X89.865 Y91.077 E0.6735
G1 X90.141 Y91.458 E0.6832
G1 X90.204 Y91.555 E0.6856
G1 X90.314 Y91.745 E0.6902
G1 X90.366 Y91.847 E0.6926
G1 X90.558 Y92.278 E0.7023
G1 X90.599 Y92.385 E0.7047
G1 X90.667 Y92.595 E0.7092
G1 X90.697 Y92.707 E0.7116
G1 X90.795 Y93.167 E0.7214
G1 X90.813 Y93.281 E0.7238
G1 X90.836 Y93.500 E0.7283
G1 X90.842 Y93.615 E0.7307
G1 X90.842 Y106.385 E0.9949
G1 X90.836 Y106.500 E0.9973
G1 X90.813 Y106.719 E1.0019
G1 X90.795 Y106.833 E1.0043
G1 X90.697 Y107.293 E1.0140
G1 X90.667 Y107.405 E1.0164
G1 X90.599 Y107.614 E1.0209
G1 X90.558 Y107.722 E1.0233
G1 X90.366 Y108.152 E1.0331
G1 X90.314 Y108.255 E1.0355
G1 X90.204 Y108.445 E1.0400
G1 X90.141 Y108.541 E1.0424
G1 X89.865 Y108.922 E1.0521
G1 X89.792 Y109.012 E1.0545
G1 X89.644 Y109.176 E1.0591
G1 X89.563 Y109.258 E1.0615
G1 X89.212 Y109.573 E1.0712
G1 X89.123 Y109.645 E1.0736
G1 X88.946 Y109.774 E1.0781
G1 X88.849 Y109.837 E1.0805
G1 X88.442 Y110.072 E1.0902
G1 X88.339 Y110.125 E1.0926
G1 X88.138 Y110.214 E1.0972
G1 X88.030 Y110.256 E1.0996
G1 X87.582 Y110.401 E1.1093
G1 X87.470 Y110.431 E1.1117
G1 X87.255 Y110.477 E1.1163
G1 X87.141 Y110.495 E1.1187
G1 X86.728 Y110.538 E1.1273
G1 X86.671 Y110.543 E1.1284
G1 X86.561 Y110.548 E1.1307
G1 X86.503 Y110.550 E1.1319
G1 X60.293 Y110.550 E1.6742
G1 X60.236 Y110.548 E1.6754
G1 X60.126 Y110.543 E1.6777
G1 X60.069 Y110.538 E1.6789
G1 X59.655 Y110.495 E1.6875
G1 X59.541 Y110.477 E1.6899
G1 X59.326 Y110.431 E1.6944
G1 X59.215 Y110.401 E1.6968
G1 X58.767 Y110.256 E1.7066
G1 X58.659 Y110.214 E1.7090
G1 X58.458 Y110.125 E1.7135
G1 X58.355 Y110.072 E1.7159
G1 X57.947 Y109.837 E1.7257
G1 X57.850 Y109.774 E1.7280
G1 X57.672 Y109.644 E1.7326
G1 X57.582 Y109.571 E1.7350
G1 X57.231 Y109.255 E1.7448
G1 X57.149 Y109.173 E1.7472
G1 X57.002 Y109.009 E1.7517
G1 X56.930 Y108.919 E1.7541
G1 X56.653 Y108.538 E1.7639
G1 X56.591 Y108.441 E1.7662
G1 X56.481 Y108.251 E1.7708
G1 X56.429 Y108.148 E1.7732
G1 X56.238 Y107.718 E1.7829
G1 X56.197 Y107.611 E1.7853
G1 X56.129 Y107.403 E1.7898
G1 X56.099 Y107.292 E1.7922
G1 X56.002 Y106.833 E1.8019
G1 X55.984 Y106.719 E1.8043
G1 X55.961 Y106.500 E1.8088
G1 X55.955 Y106.385 E1.8112
G1 X55.955 Y93.613 E2.0755
G1 X55.961 Y93.497 E2.0779
G1 X55.984 Y93.277 E2.0825
G1 X56.003 Y93.163 E2.0849
G1 X56.101 Y92.702 E2.0946
G1 X56.131 Y92.591 E2.0970
G1 X56.199 Y92.382 E2.1016
G1 X56.241 Y92.274 E2.1039
G1 X56.432 Y91.845 E2.1137
G1 X56.485 Y91.742 E2.1160
G1 X56.594 Y91.553 E2.1206
G1 X56.657 Y91.457 E2.1229
G1 X56.932 Y91.077 E2.1327
G1 X57.005 Y90.988 E2.1350
G1 X57.152 Y90.824 E2.1396
G1 X57.234 Y90.743 E2.1420
G1 X57.583 Y90.428 E2.1517
G1 X57.673 Y90.355 E2.1541
G1 X57.851 Y90.226 E2.1587
G1 X57.948 Y90.163 E2.1610
G1 X108.148 Y91.798 F4800
G92 E0
G1 X108.483 Y90.990 E0.0181 F1800
G1 X109.688 Y89.785 E0.0534
G1 X110.497 Y89.450 E0.0715
G1 X139.500 Y89.450 E0.6716
G1 X140.309 Y89.785 E0.6897
G1 X141.513 Y90.990 E0.7250
G1 X141.848 Y91.798 E0.7431
G1 X141.848 Y107.402 E1.0659
G1 X141.513 Y108.210 E1.0840
G1 X140.309 Y109.415 E1.1193
G1 X139.500 Y109.750 E1.1374
G1 X110.497 Y109.750 E1.7375
G1 X109.688 Y109.415 E1.7556
G1 X108.483 Y108.210 E1.7909
G1 X108.148 Y107.402 E1.8090
G1 X108.148 Y91.798 E2.1319
G1 X160.348 Y91.798 F4800
G92 E0
G1 X160.683 Y90.990 E0.0181 F1800
G1 X161.888 Y89.785 E0.0534
G1 X162.697 Y89.450 E0.0715
G1 X191.700 Y89.450 E0.6716
G1 X192.509 Y89.785 E0.6897
G1 X193.713 Y90.990 E0.7250
G1 X194.048 Y91.798 E0.7431
G1 X194.048 Y107.402 E1.0659
G1 X193.713 Y108.210 E1.0840
G1 X192.509 Y109.415 E1.1193
G1 X191.700 Y109.750 E1.1374
G1 X162.697 Y109.750 E1.7375
G1 X161.888 Y109.415 E1.7556
G1 X160.683 Y108.210 E1.7909
G1 X160.348 Y107.402 E1.8090
G1 X160.348 Y91.798 E2.1319
G1 X160.748 Y91.878 F4800
G92 E0
G1 X161.022 Y91.216 E0.0148 F1800
G1 X162.115 Y90.124 E0.0468
G1 X162.776 Y89.850 E0.0616
G1 X191.621 Y89.850 E0.6584
G1 X192.282 Y90.124 E0.6732
G1 X193.374 Y91.216 E0.7052
G1 X193.648 Y91.878 E0.7200
G1 X193.648 Y107.322 E1.0396
G1 X193.374 Y107.984 E1.0544
G1 X192.282 Y109.076 E1.0864
G1 X191.621 Y109.350 E1.1012
G1 X162.776 Y109.350 E1.6980
G1 X162.115 Y109.076 E1.7128
G1 X161.022 Y107.984 E1.7448
G1 X160.748 Y107.322 E1.7596
G1 X160.748 Y91.878 E2.0792
G1 X141.448 Y91.878 F4800
G92 E0
G1 X141.448 Y107.322 E0.3196 F1800
G1 X141.174 Y107.984 E0.3344
G1 X140.082 Y109.076 E0.3663
G1 X139.421 Y109.350 E0.3812
G1 X110.576 Y109.350 E0.9780
G1 X109.915 Y109.076 E0.9928
G1 X108.822 Y107.984 E1.0248
G1 X108.548 Y107.322 E1.0396
G1 X108.548 Y91.878 E1.3592
G1 X108.822 Y91.216 E1.3740
G1 X109.915 Y90.124 E1.4059
G1 X110.576 Y89.850 E1.4208
G1 X139.421 Y89.850 E2.0176
G1 X140.082 Y90.124 E2.0324
G1 X141.174 Y91.216 E2.0644
G1 X141.448 Y91.878 E2.0792
G92 E0
G1 E-1.0000 F1800
G1 X90.442 Y93.625 F4800
G1 E0.0000 F1800
G92 E0
G1 X90.442 Y106.375 E0.2638 F1800
G1 X90.437 Y106.469 E0.2658
G1 X90.416 Y106.667 E0.2699
G1 X90.401 Y106.760 E0.2718
G1 X90.308 Y107.200 E0.2811
G1 X90.283 Y107.291 E0.2831
G1 X90.222 Y107.481 E0.2872
G1 X90.188 Y107.569 E0.2892
G1 X90.005 Y107.980 E0.2985
G1 X89.962 Y108.064 E0.3004
G1 X89.863 Y108.236 E0.3045
G1 X89.812 Y108.315 E0.3065
G1 X89.547 Y108.679 E0.3158
G1 X89.488 Y108.752 E0.3178
G1 X89.354 Y108.901 E0.3219
G1 X89.287 Y108.968 E0.3238
G1 X88.953 Y109.269 E0.3332
G1 X88.880 Y109.328 E0.3351
G1 X88.719 Y109.444 E0.3392
G1 X88.640 Y109.496 E0.3411
G1 X88.251 Y109.721 E0.3505
G1 X88.167 Y109.763 E0.3524
G1 X87.985 Y109.845 E0.3565
G1 X87.896 Y109.879 E0.3585
G1 X87.468 Y110.018 E0.3678
G1 X87.377 Y110.042 E0.3698
G1 X87.182 Y110.083 E0.3739
G1 X87.089 Y110.098 E0.3758
G1 X86.691 Y110.140 E0.3841
G1 X86.644 Y110.144 E0.3851
G1 X86.545 Y110.149 E0.3871
G1 X86.498 Y110.150 E0.3881
G1 X60.299 Y110.150 E0.9302
G1 X60.251 Y110.149 E0.9312
G1 X60.152 Y110.144 E0.9333
G1 X60.105 Y110.140 E0.9342
G1 X59.707 Y110.098 E0.9425
G1 X59.614 Y110.083 E0.9445
G1 X59.420 Y110.042 E0.9486
G1 X59.329 Y110.018 E0.9505
G1 X58.900 Y109.879 E0.9598
G1 X58.812 Y109.845 E0.9618
G1 X58.630 Y109.764 E0.9659
G1 X58.546 Y109.721 E0.9679
G1 X58.156 Y109.495 E0.9772
G1 X58.077 Y109.444 E0.9791
G1 X57.915 Y109.326 E0.9833
G1 X57.842 Y109.267 E0.9852
G1 X57.507 Y108.965 E0.9946
G1 X57.440 Y108.898 E0.9965
G1 X57.307 Y108.750 E1.0007
G1 X57.247 Y108.676 E1.0026
G1 X56.983 Y108.312 E1.0119
G1 X56.932 Y108.233 E1.0139
G1 X56.833 Y108.060 E1.0180
G1 X56.790 Y107.976 E1.0199
G1 X56.608 Y107.565 E1.0292
G1 X56.574 Y107.478 E1.0312
G1 X56.513 Y107.289 E1.0353
G1 X56.489 Y107.199 E1.0372
G1 X56.395 Y106.760 E1.0465
G1 X56.381 Y106.667 E1.0484
G1 X56.360 Y106.469 E1.0526
G1 X56.355 Y106.375 E1.0545
G1 X56.355 Y93.623 E1.3184
G1 X56.360 Y93.529 E1.3203
G1 X56.381 Y93.330 E1.3245
G1 X56.396 Y93.236 E1.3264
G1 X56.490 Y92.796 E1.3357
G1 X56.515 Y92.705 E1.3377
G1 X56.576 Y92.516 E1.3418
G1 X56.610 Y92.428 E1.3438
G1 X56.793 Y92.017 E1.3531
G1 X56.836 Y91.934 E1.3550
G1 X56.935 Y91.762 E1.3591
G1 X56.986 Y91.683 E1.3610
G1 X57.250 Y91.321 E1.3703
G1 X57.309 Y91.247 E1.3723
G1 X57.442 Y91.100 E1.3764
G1 X57.509 Y91.033 E1.3783
G1 X57.843 Y90.732 E1.3877
G1 X57.917 Y90.672 E1.3896
G1 X58.078 Y90.555 E1.3937
G1 X58.157 Y90.504 E1.3957
G1 X58.545 Y90.280 E1.4049
G1 X58.629 Y90.237 E1.4069
G1 X58.810 Y90.157 E1.4110
G1 X58.897 Y90.123 E1.4129
G1 X59.326 Y89.983 E1.4223
G1 X59.418 Y89.959 E1.4242
G1 X59.613 Y89.917 E1.4284
G1 X59.707 Y89.902 E1.4303
G1 X60.105 Y89.860 E1.4386
G1 X60.152 Y89.856 E1.4396
G1 X60.252 Y89.851 E1.4416
G1 X60.299 Y89.850 E1.4426
G1 X86.498 Y89.850 E1.9847
G1 X86.545 Y89.851 E1.9857
G1 X86.645 Y89.856 E1.9878
G1 X86.691 Y89.860 E1.9887
G1 X87.089 Y89.902 E1.9970
G1 X87.183 Y89.917 E1.9990
