; G-Code generated by Simplify3D(R) Version 4.0.1
; Dec 31, 2017 at 3:12:45 PM
; Settings Summary
;   processName,Process1
;   applyToModels,charger-box
;   profileName,BCN3D+ (modified)
;   profileVersion,2017-12-31 13:44:16
;   baseProfile,Default
;   printMaterial,Nylon
;   printQuality,Medium
;   printExtruders,
;   extruderName,Extruder 1
;   extruderToolheadNumber,0
;   extruderDiameter,0.4
;   extruderAutoWidth,0
;   extruderWidth,0.4
;   extrusionMultiplier,1
;   extruderUseRetract,1
;   extruderRetractionDistance,1
;   extruderExtraRestartDistance,0
;   extruderRetractionZLift,0
;   extruderRetractionSpeed,1800
;   extruderUseCoasting,0
;   extruderCoastingDistance,0.2
;   extruderUseWipe,0
;   extruderWipeDistance,5
;   primaryExtruder,0
;   layerHeight,0.2
;   topSolidLayers,3
;   bottomSolidLayers,3
;   perimeterOutlines,2
;   printPerimetersInsideOut,1
;   startPointOption,2
;   startPointOriginX,0
;   startPointOriginY,0
;   sequentialIslands,0
;   spiralVaseMode,0
;   firstLayerHeightPercentage,90
;   firstLayerWidthPercentage,100
;   firstLayerUnderspeed,0.5
;   useRaft,0
;   raftExtruder,0
;   raftTopLayers,3
;   raftBaseLayers,2
;   raftOffset,3
;   raftSeparationDistance,0.14
;   raftTopInfill,100
;   aboveRaftSpeedMultiplier,0.3
;   useSkirt,1
;   skirtExtruder,0
;   skirtLayers,1
;   skirtOutlines,10
;   skirtOffset,10
;   usePrimePillar,0
;   primePillarExtruder,999
;   primePillarWidth,12
;   primePillarLocation,7
;   primePillarSpeedMultiplier,1
;   useOozeShield,0
;   oozeShieldExtruder,999
;   oozeShieldOffset,2
;   oozeShieldOutlines,1
;   oozeShieldSidewallShape,1
;   oozeShieldSidewallAngle,30
;   oozeShieldSpeedMultiplier,1
;   infillExtruder,0
;   internalInfillPattern,Rectilinear
;   externalInfillPattern,Rectilinear
;   infillPercentage,100
;   outlineOverlapPercentage,15
;   infillExtrusionWidthPercentage,100
;   minInfillLength,5
;   infillLayerInterval,1
;   internalInfillAngles,45,-45
;   overlapInternalInfillAngles,0
;   externalInfillAngles,45,-45
;   generateSupport,0
;   supportExtruder,0
;   supportInfillPercentage,30
;   supportExtraInflation,0
;   supportBaseLayers,0
;   denseSupportExtruder,0
;   denseSupportLayers,0
;   denseSupportInfillPercentage,70
;   supportLayerInterval,1
;   supportHorizontalPartOffset,0.3
;   supportUpperSeparationLayers,1
;   supportLowerSeparationLayers,1
;   supportType,0
;   supportGridSpacing,4
;   maxOverhangAngle,45
;   supportAngles,0
;   temperatureName,Extruder 1,Heated Bed
;   temperatureNumber,0,0
;   temperatureSetpointCount,1,1
;   temperatureSetpointLayers,1,1
;   temperatureSetpointTemperatures,230,0
;   temperatureStabilizeAtStartup,1,1
;   temperatureHeatedBed,0,1
;   temperatureRelayBetweenLayers,0,0
;   temperatureRelayBetweenLoops,0,0
;   fanLayers,1,2
;   fanSpeeds,0,100
;   blipFanToFullPower,0
;   adjustSpeedForCooling,1
;   minSpeedLayerTime,15
;   minCoolingSpeedSlowdown,20
;   increaseFanForCooling,0
;   minFanLayerTime,45
;   maxCoolingFanSpeed,100
;   increaseFanForBridging,0
;   bridgingFanSpeed,100
;   use5D,1
;   relativeEdistances,0
;   allowEaxisZeroing,1
;   independentExtruderAxes,0
;   includeM10123,0
;   stickySupport,1
;   applyToolheadOffsets,0
;   gcodeXoffset,0
;   gcodeYoffset,0
;   gcodeZoffset,0
;   overrideMachineDefinition,1
;   machineTypeOverride,0
;   strokeXoverride,250
;   strokeYoverride,200
;   strokeZoverride,200
;   originOffsetXoverride,0
;   originOffsetYoverride,0
;   originOffsetZoverride,0
;   homeXdirOverride,-1
;   homeYdirOverride,-1
;   homeZdirOverride,-1
;   flipXoverride,1
;   flipYoverride,-1
;   flipZoverride,1
;   toolheadOffsets,0,0|0,0|0,0|0,0|0,0|0,0
;   overrideFirmwareConfiguration,1
;   firmwareTypeOverride,RepRap (Marlin/Repetier/Sprinter)
;   GPXconfigOverride,r2
;   baudRateOverride,115200
;   overridePrinterModels,0
;   printerModelsOverride
;   startingGcode,;Sliced at: {day} {date} {time} ,;Basic settings: Layer height: {layer_height} Walls: {wall_thickness} Fill: {fill_density},;Print time: {print_time},;Filament used: {filament_amount}m {filament_weight}g,;Filament cost: {filament_cost},M104 S0 T1;cooldown left Hotend,,M109 S[extruder0_temperature] T0;stabilize right Hotend Temperature,,M190 S[bed0_temperature];stabilize bed temperature,G21;metric values,G90;absolute positioning,M82;set extruder to absolute mode,M107;start with the fan off,G28 X0 Y0;move X/Y to min endstops,G28 Z0;move Z to min endstops,T0;change to active toolhead,G92 E0;zero the extruded length,G1 Z5 F1200;Safety Z axis movement,G1 F18.81 E10.0 ;extrude 10.0mm of feed stock,G92 E0;zero the extruded length again,G1 F2400 E-4;Retract before printing,G1 F3600
;   layerChangeGcode,
;   retractionGcode,
;   toolChangeGcode,
;   endingGcode,M104 S0 ; turn off extruder,M140 S0;heated bed heater off,G91;relative positioning,G1 Z+0.5 E-5 Y+10 F3600 ;move Z up a bit and retract filament even more,G28 X0 Y0;move X/Y to min endstops, so the head is out of the way,M84;steppers off,G90;absolute positioning,;{profile_string}
;   exportFileFormat,gcode
;   celebration,0
;   celebrationSong,Random Song
;   postProcessing,curl -k -H "X-Api-Key: B04DF272E0004962BE7083D0EA60AD7A" -F "select=true" -F "print=false" -F "file=@[output_filepath]" "http://octopi.guerville.com/api/files/local" {STRIP "; postProcessing"}
;   defaultSpeed,3600
;   outlineUnderspeed,0.5
;   solidInfillUnderspeed,0.8
;   supportUnderspeed,0.8
;   rapidXYspeed,4800
;   rapidZspeed,1002
;   minBridgingArea,50
;   bridgingExtraInflation,0
;   bridgingExtrusionMultiplier,1
;   bridgingSpeedMultiplier,1
;   useFixedBridgingAngle,0
;   fixedBridgingAngle,0
;   applyBridgingToPerimeters,0
;   filamentDiameters,2.75|2.75|2.75|2.75|2.75|2.75
;   filamentPricesPerKg,46|46|46|46|46|46
;   filamentDensities,1.25|1.25|1.25|1.25|1.25|1.25
;   useMinPrintHeight,0
;   minPrintHeight,0
;   useMaxPrintHeight,0
;   maxPrintHeight,0
;   useDiaphragm,0
;   diaphragmLayerInterval,20
;   robustSlicing,1
;   mergeAllIntoSolid,0
;   onlyRetractWhenCrossingOutline,1
;   retractBetweenLayers,1
;   useRetractionMinTravel,0
;   retractionMinTravel,3
;   retractWhileWiping,0
;   onlyWipeOutlines,1
;   avoidCrossingOutline,0
;   maxMovementDetourFactor,3
;   toolChangeRetractionDistance,12
;   toolChangeExtraRestartDistance,-0.5
;   toolChangeRetractionSpeed,600
;   externalThinWallType,0
;   internalThinWallType,2
;   thinWallAllowedOverlapPercentage,10
;   singleExtrusionMinLength,1
;   singleExtrusionMinPrintingWidthPercentage,50
;   singleExtrusionMaxPrintingWidthPercentage,200
;   singleExtrusionEndpointExtension,0.2
;   horizontalSizeCompensation,0
G90
M82
M106 S0
;Sliced at: {day} {date} {time} 
;Basic settings: Layer height: {layer_height} Walls: {wall_thickness} Fill: {fill_density}
;Print time: {print_time}
;Filament used: {filament_amount}m {filament_weight}g
;Filament cost: {filament_cost}
M104 S0 T1;cooldown left Hotend,
M109 S230 T0;stabilize right Hotend Temperature,
G21;metric values
G90;absolute positioning
M82;set extruder to absolute mode
M107;start with the fan off
G28 X0 Y0;move X/Y to min endstops
G28 Z0;move Z to min endstops
T0;change to active toolhead
G92 E0;zero the extruded length
G1 Z5 F1200;Safety Z axis movement
G1 F18.81 E10.0 ;extrude 10.0mm of feed stock
G92 E0;zero the extruded length again
G1 F2400 E-4;Retract before printing
G1 F3600
G92 E0
G1 E-1.0000 F1800
G1 Z0.180 F1002
; process Process1
; layer 1, Z = 0.180
T0
; tool H0.200 W0.400
; skirt
G1 X110.029 Y90.655 F4800
G1 E0.0000 F540
G92 E0
G1 X116.955 Y83.729 E0.1319 F720
G1 X118.352 Y83.150 E0.1523
G1 X131.648 Y83.150 E0.3314
G1 X133.045 Y83.729 E0.3517
G1 X139.971 Y90.655 E0.4837
G1 X140.550 Y92.052 E0.5041
G1 X140.550 Y107.948 E0.7182
G1 X139.971 Y109.345 E0.7385
G1 X133.045 Y116.271 E0.8705
G1 X131.648 Y116.850 E0.8908
G1 X118.352 Y116.850 E1.0699
G1 X116.955 Y116.271 E1.0903
G1 X110.029 Y109.345 E1.2222
G1 X109.450 Y107.948 E1.2426
G1 X109.450 Y92.052 E1.4567
G1 X110.029 Y90.655 E1.4770
G1 X110.368 Y90.882 F4800
G92 E0
G1 X117.182 Y84.068 E0.1298 F720
G1 X118.432 Y83.550 E0.1480
G1 X131.568 Y83.550 E0.3250
G1 X132.818 Y84.068 E0.3432
G1 X139.632 Y90.882 E0.4730
G1 X140.150 Y92.132 E0.4912
G1 X140.150 Y107.868 E0.7032
G1 X139.632 Y109.118 E0.7214
G1 X132.818 Y115.932 E0.8512
G1 X131.568 Y116.450 E0.8694
G1 X118.432 Y116.450 E1.0463
G1 X117.182 Y115.932 E1.0645
G1 X110.368 Y109.118 E1.1943
G1 X109.850 Y107.868 E1.2126
G1 X109.850 Y92.132 E1.4245
G1 X110.368 Y90.882 E1.4427
G1 X110.707 Y91.108 F4800
G92 E0
G1 X117.409 Y84.407 E0.1277 F720
G1 X118.511 Y83.950 E0.1437
G1 X131.489 Y83.950 E0.3185
G1 X132.591 Y84.407 E0.3346
G1 X139.293 Y91.108 E0.4623
G1 X139.750 Y92.211 E0.4783
G1 X139.750 Y107.789 E0.6881
G1 X139.293 Y108.891 E0.7042
G1 X132.591 Y115.593 E0.8319
G1 X131.489 Y116.050 E0.8480
G1 X118.511 Y116.050 E1.0228
G1 X117.409 Y115.593 E1.0388
G1 X110.707 Y108.891 E1.1665
G1 X110.250 Y107.789 E1.1826
G1 X110.250 Y92.211 E1.3924
G1 X110.707 Y91.108 E1.4084
G1 X111.046 Y91.335 F4800
G92 E0
G1 X117.635 Y84.746 E0.1255 F720
G1 X118.591 Y84.350 E0.1394
G1 X131.409 Y84.350 E0.3121
G1 X132.365 Y84.746 E0.3260
G1 X138.954 Y91.335 E0.4515
G1 X139.350 Y92.291 E0.4655
G1 X139.350 Y107.709 E0.6731
G1 X138.954 Y108.665 E0.6871
G1 X132.365 Y115.254 E0.8126
G1 X131.409 Y115.650 E0.8265
G1 X118.591 Y115.650 E0.9992
G1 X117.635 Y115.254 E1.0131
G1 X111.046 Y108.665 E1.1386
G1 X110.650 Y107.709 E1.1526
G1 X110.650 Y92.291 E1.3602
G1 X111.046 Y91.335 E1.3742
G1 X111.385 Y91.562 F4800
G92 E0
G1 X117.862 Y85.085 E0.1234 F720
G1 X118.670 Y84.750 E0.1352
G1 X131.330 Y84.750 E0.3057
G1 X132.138 Y85.085 E0.3175
G1 X138.615 Y91.562 E0.4408
G1 X138.950 Y92.370 E0.4526
G1 X138.950 Y107.630 E0.6581
G1 X138.615 Y108.438 E0.6699
G1 X132.138 Y114.915 E0.7933
G1 X131.330 Y115.250 E0.8051
G1 X118.670 Y115.250 E0.9756
G1 X117.862 Y114.915 E0.9874
G1 X111.385 Y108.438 E1.1108
G1 X111.050 Y107.630 E1.1225
G1 X111.050 Y92.370 E1.3281
G1 X111.385 Y91.562 E1.3399
G1 X111.724 Y91.788 F4800
G92 E0
G1 X118.088 Y85.424 E0.1212 F720
G1 X118.750 Y85.150 E0.1309
G1 X131.250 Y85.150 E0.2992
G1 X131.912 Y85.424 E0.3089
G1 X138.276 Y91.788 E0.4301
G1 X138.550 Y92.450 E0.4398
G1 X138.550 Y107.550 E0.6431
G1 X138.276 Y108.212 E0.6528
G1 X131.912 Y114.576 E0.7740
G1 X131.250 Y114.850 E0.7837
G1 X118.750 Y114.850 E0.9520
G1 X118.088 Y114.576 E0.9617
G1 X111.724 Y108.212 E1.0829
G1 X111.450 Y107.550 E1.0925
G1 X111.450 Y92.450 E1.2959
G1 X111.724 Y91.788 E1.3056
G1 X112.063 Y92.015 F4800
G92 E0
G1 X118.315 Y85.763 E0.1191 F720
G1 X118.829 Y85.550 E0.1266
G1 X131.171 Y85.550 E0.2928
G1 X131.685 Y85.763 E0.3003
G1 X137.937 Y92.015 E0.4194
G1 X138.150 Y92.529 E0.4269
G1 X138.150 Y107.471 E0.6281
G1 X137.937 Y107.985 E0.6356
G1 X131.685 Y114.237 E0.7547
G1 X131.171 Y114.450 E0.7622
G1 X118.829 Y114.450 E0.9284
G1 X118.315 Y114.237 E0.9359
G1 X112.063 Y107.985 E1.0550
G1 X111.850 Y107.471 E1.0625
G1 X111.850 Y92.529 E1.2638
G1 X112.063 Y92.015 E1.2713
G1 X112.402 Y92.241 F4800
G92 E0
G1 X118.541 Y86.102 E0.1169 F720
G1 X118.909 Y85.950 E0.1223
G1 X131.091 Y85.950 E0.2864
G1 X131.459 Y86.102 E0.2917
G1 X137.598 Y92.241 E0.4087
G1 X137.750 Y92.609 E0.4140
G1 X137.750 Y107.391 E0.6131
G1 X137.598 Y107.759 E0.6185
G1 X131.459 Y113.898 E0.7354
G1 X131.091 Y114.050 E0.7408
G1 X118.909 Y114.050 E0.9049
G1 X118.541 Y113.898 E0.9102
G1 X112.402 Y107.759 E1.0272
G1 X112.250 Y107.391 E1.0325
G1 X112.250 Y92.609 E1.2316
G1 X112.402 Y92.241 E1.2370
G1 X112.741 Y92.468 F4800
G92 E0
G1 X118.768 Y86.441 E0.1148 F720
G1 X118.989 Y86.350 E0.1180
G1 X131.011 Y86.350 E0.2799
G1 X131.232 Y86.441 E0.2832
G1 X137.259 Y92.468 E0.3980
G1 X137.350 Y92.689 E0.4012
G1 X137.350 Y107.311 E0.5981
G1 X137.259 Y107.532 E0.6013
G1 X131.232 Y113.559 E0.7161
G1 X131.011 Y113.650 E0.7194
G1 X118.989 Y113.650 E0.8813
G1 X118.768 Y113.559 E0.8845
G1 X112.741 Y107.532 E0.9993
G1 X112.650 Y107.311 E1.0025
G1 X112.650 Y92.689 E1.1995
G1 X112.741 Y92.468 E1.2027
G1 X113.080 Y92.695 F4800
G92 E0
G1 X118.995 Y86.780 E0.1127 F720
G1 X119.068 Y86.750 E0.1137
G1 X130.932 Y86.750 E0.2735
G1 X131.005 Y86.780 E0.2746
G1 X136.920 Y92.695 E0.3872
G1 X136.950 Y92.768 E0.3883
G1 X136.950 Y107.232 E0.5831
G1 X136.920 Y107.305 E0.5842
G1 X131.005 Y113.220 E0.6969
G1 X130.932 Y113.250 E0.6979
G1 X119.068 Y113.250 E0.8577
G1 X118.995 Y113.220 E0.8588
G1 X113.080 Y107.305 E0.9714
G1 X113.050 Y107.232 E0.9725
G1 X113.050 Y92.768 E1.1673
G1 X113.080 Y92.695 E1.1684
G92 E0
G1 E-1.0000 F1800
; inner perimeter
G1 X123.850 Y97.550 F4800
G1 E0.0000 F1800
G92 E0
G1 X126.150 Y97.550 E0.0310 F540
G1 X126.150 Y102.450 E0.0970
G1 X123.850 Y102.450 E0.1280
G1 X123.850 Y97.550 E0.1940
; outer perimeter
G1 X123.450 Y97.150 F4800
G92 E0
G1 X126.550 Y97.150 E0.0418 F360
G1 X126.550 Y102.850 E0.1185
G1 X123.450 Y102.850 E0.1603
G1 X123.450 Y97.150 E0.2371
; solid layer
G1 X125.718 Y97.890 F4800
G92 E0
G1 X125.810 Y97.982 E0.0017 F576
G1 X125.810 Y98.547 E0.0094
G1 X125.153 Y97.890 E0.0219
G1 X124.587 Y97.890 E0.0295
G1 X125.810 Y99.113 E0.0528
G1 X125.810 Y99.679 E0.0604
G1 X124.190 Y98.059 E0.0913
G1 X124.190 Y98.624 E0.0989
G1 X125.810 Y100.244 E0.1298
G1 X125.810 Y100.810 E0.1374
G1 X124.190 Y99.190 E0.1682
G1 X124.190 Y99.756 E0.1758
G1 X125.810 Y101.376 E0.2067
G1 X125.810 Y101.941 E0.2143
G1 X124.190 Y100.321 E0.2452
G1 X124.190 Y100.887 E0.2528
G1 X125.413 Y102.110 E0.2761
G1 X124.847 Y102.110 E0.2837
G1 X124.190 Y101.453 E0.2962
G1 X124.190 Y102.018 E0.3039
G1 X124.282 Y102.110 E0.3056
G92 E0
G1 E-1.0000 F1800
; layer 2, Z = 0.380
M106 S255
; inner perimeter
G1 X123.850 Y102.450 F4800
G1 Z0.380 F1002
G1 E0.0000 F1800
G92 E0
G1 X123.850 Y97.550 E0.0660 F540
G1 X126.150 Y97.550 E0.0970
G1 X126.150 Y102.450 E0.1630
G1 X123.850 Y102.450 E0.1940
; outer perimeter
G1 X123.450 Y102.850 F4800
G92 E0
G1 X123.450 Y97.150 E0.0768 F360
G1 X126.550 Y97.150 E0.1185
G1 X126.550 Y102.850 E0.1953
G1 X123.450 Y102.850 E0.2371
; solid layer
G1 X125.810 Y102.018 F4800
G92 E0
G1 X125.718 Y102.110 E0.0017 F576
G1 X125.153 Y102.110 E0.0094
G1 X125.810 Y101.453 E0.0219
G1 X125.810 Y100.887 E0.0295
G1 X124.587 Y102.110 E0.0528
G1 X124.190 Y102.110 E0.0581
G1 X124.190 Y101.941 E0.0604
G1 X125.810 Y100.321 E0.0913
G1 X125.810 Y99.756 E0.0989
G1 X124.190 Y101.376 E0.1297
G1 X124.190 Y100.810 E0.1374
G1 X125.810 Y99.190 E0.1682
G1 X125.810 Y98.624 E0.1758
G1 X124.190 Y100.244 E0.2067
G1 X124.190 Y99.679 E0.2143
G1 X125.810 Y98.059 E0.2452
G1 X125.810 Y97.890 E0.2475
G1 X125.413 Y97.890 E0.2528
G1 X124.190 Y99.113 E0.2761
G1 X124.190 Y98.547 E0.2837
G1 X124.847 Y97.890 E0.2962
G1 X124.282 Y97.890 E0.3039
G1 X124.190 Y97.982 E0.3056
G92 E0
G1 E-1.0000 F1800
; layer 3, Z = 0.580
; inner perimeter
G1 X123.850 Y97.550 F4800
G1 Z0.580 F1002
G1 E0.0000 F1800
G92 E0
G1 X126.150 Y97.550 E0.0310 F540
G1 X126.150 Y102.450 E0.0970
G1 X123.850 Y102.450 E0.1280
G1 X123.850 Y97.550 E0.1940
; outer perimeter
G1 X123.450 Y97.150 F4800
G92 E0
G1 X126.550 Y97.150 E0.0418 F360
G1 X126.550 Y102.850 E0.1185
G1 X123.450 Y102.850 E0.1603
G1 X123.450 Y97.150 E0.2371
; solid layer
G1 X125.718 Y97.890 F4800
G92 E0
G1 X125.810 Y97.982 E0.0017 F576
G1 X125.810 Y98.547 E0.0094
G1 X125.153 Y97.890 E0.0219
G1 X124.587 Y97.890 E0.0295
G1 X125.810 Y99.113 E0.0528
G1 X125.810 Y99.679 E0.0604
G1 X124.190 Y98.059 E0.0913
G1 X124.190 Y98.624 E0.0989
G1 X125.810 Y100.244 E0.1298
G1 X125.810 Y100.810 E0.1374
G1 X124.190 Y99.190 E0.1682
G1 X124.190 Y99.756 E0.1758
G1 X125.810 Y101.376 E0.2067
G1 X125.810 Y101.941 E0.2143
G1 X124.190 Y100.321 E0.2452
G1 X124.190 Y100.887 E0.2528
G1 X125.413 Y102.110 E0.2761
G1 X124.847 Y102.110 E0.2837
G1 X124.190 Y101.453 E0.2962
G1 X124.190 Y102.018 E0.3039
G1 X124.282 Y102.110 E0.3056
G92 E0
G1 E-1.0000 F1800
; layer 4, Z = 0.780
; inner perimeter
G1 X123.850 Y102.450 F4800
G1 Z0.780 F1002
G1 E0.0000 F1800
G92 E0
G1 X123.850 Y97.550 E0.0660 F540
G1 X126.150 Y97.550 E0.0970
G1 X126.150 Y102.450 E0.1630
G1 X123.850 Y102.450 E0.1940
; outer perimeter
G1 X123.450 Y102.850 F4800
G92 E0
G1 X123.450 Y97.150 E0.0768 F360
